public/cards/A-C.svg

<?xml version="1.0" encoding="UTF-8"?>
<svg width="360px" height="540px" viewBox="0 0 360 540" version="1.1" xmlns="http://www.w3.org/2000/svg" xmlns:xlink="http://www.w3.org/1999/xlink">
    <!-- Generator: Sketch 55.2 (78181) - https://sketchapp.com -->
    <title>A-C</title>
    <desc>Created with Sketch.</desc>
    <g id="Page-1" stroke="none" stroke-width="1" fill="none" fill-rule="evenodd">
        <g id="English_pattern_playing_cards_deck" transform="translate(0.000000, -1.000000)" fill-rule="nonzero">
            <g id="A-C" transform="translate(0.000000, 0.637820)">
                <rect id="rect6472-45" stroke="#000000" stroke-width="0.99999976" fill="#FFFFFF" x="0.5" y="0.86218" width="359" height="539" rx="29.944447"></rect>
                <path d="M27.5,30.36218 L18.5,80.36218 L23.5,80.36218 L25.84375,67.36218 L34.15625,67.36218 L36.5,80.36218 L41.5,80.36218 L32.5,30.36218 L27.5,30.36218 Z M30,44.26843 L33.25,62.36218 L26.75,62.36218 L30,44.26843 Z" id="path3497-7" fill="#000000"></path>
                <path d="M327.5,510.3622 L318.5,460.36216 L323.5,460.36216 L325.84375,473.36216 L334.15625,473.36216 L336.5,460.36216 L341.5,460.36216 L332.5,510.3622 L327.5,510.3622 Z M330,496.4559 L333.25,478.36218 L326.75,478.36218 L330,496.4559 Z" id="path3497-5-9" fill="#000000"></path>
                <path d="M185,281.36218 C186,285.36218 190,295.36218 197,295.36218 C206,295.36218 210,287.36218 210,277.36218 C210,270.36218 207.42105,265.74989 205,260.36218 C202.42212,254.62545 198.62068,249.50477 195,244.36218 C190.3547,237.76428 180,225.36218 180,225.36218 C180,225.36218 169.6453,237.76428 165,244.36218 C161.37932,249.50477 157.57788,254.62545 155,260.36218 C152.57895,265.74989 150,270.36218 150,277.36218 C150,287.36218 154,295.36218 163,295.36218 C170,295.36218 174,285.36218 175,281.36218 C176,280.36218 176,281.36218 176,282.36218 C175,290.36218 175,292.36218 174,298.36218 C173,304.36218 170,315.36218 170,315.36218 C175,313.36218 185,313.36218 190,315.36218 C190,315.36218 187,304.36218 186,298.36218 C185,292.36218 185,290.36218 184,282.36218 C184,281.36218 184,280.36218 185,281.36218 Z" id="path3037-7-83" fill="#000000"></path>
                <path d="M32.5,118.36218 C33,120.36218 35,125.36218 38.5,125.36218 C43,125.36218 45,121.36218 45,116.36218 C45,112.86218 43.710525,110.55604 42.5,107.86218 C41.21106,104.99382 39.31034,102.43348 37.5,99.86218 C35.17735,96.56323 30,90.36218 30,90.36218 C30,90.36218 24.82265,96.56323 22.5,99.86218 C20.68966,102.43348 18.78894,104.99382 17.5,107.86218 C16.289475,110.55604 15,112.86218 15,116.36218 C15,121.36218 17,125.36218 21.5,125.36218 C25,125.36218 27,120.36218 27.5,118.36218 C28,117.86218 28,118.36218 28,118.86218 C27.5,122.86218 27.5,123.86218 27,126.86218 C26.5,129.86218 25,135.36218 25,135.36218 C27.5,134.36218 32.5,134.36218 35,135.36218 C35,135.36218 33.5,129.86218 33,126.86218 C32.5,123.86218 32.5,122.86218 32,118.86218 C32,118.36218 32,117.86218 32.5,118.36218 Z" id="path3037-7-4-02" fill="#000000"></path>
                <path d="M332.5,422.36218 C333,420.36218 335,415.36218 338.5,415.36218 C343,415.36218 345,419.36218 345,424.36218 C345,427.86218 343.71053,430.16832 342.5,432.86218 C341.21106,435.73054 339.31034,438.29088 337.5,440.86218 C335.17735,444.16113 330,450.36218 330,450.36218 C330,450.36218 324.82265,444.16113 322.5,440.86218 C320.68966,438.29088 318.78894,435.73054 317.5,432.86218 C316.28947,430.16832 315,427.86218 315,424.36218 C315,419.36218 317,415.36218 321.5,415.36218 C325,415.36218 327,420.36218 327.5,422.36218 C328,422.86218 328,422.36218 328,421.86218 C327.5,417.86218 327.5,416.86218 327,413.86218 C326.5,410.86218 325,405.36218 325,405.36218 C327.5,406.36218 332.5,406.36218 335,405.36218 C335,405.36218 333.5,410.86218 333,413.86218 C332.5,416.86218 332.5,417.86218 332,421.86218 C332,422.36218 332,422.86218 332.5,422.36218 Z" id="path3037-7-4-0-2" fill="#000000"></path>
            </g>
        </g>
    </g>
</svg>

<svg width="360" height="540" xmlns="http://www.w3.org/2000/svg"><g transform="translate(0 -.362)" fill-rule="nonzero" fill="none"><rect stroke="#000" fill="#FFF" x=".5" y=".862" width="359" height="539" rx="29.944"/><path d="M27.5 30.362l-9 50h5l2.344-13h8.312l2.344 13h5l-9-50h-5zM30 44.268l3.25 18.094h-6.5L30 44.268zM327.5 510.362l-9-50h5l2.344 13h8.312l2.344-13h5l-9 50h-5zm2.5-13.906l3.25-18.094h-6.5l3.25 18.094zM185 281.362c1 4 5 14 12 14 9 0 13-8 13-18 0-7-2.579-11.612-5-17-2.578-5.737-6.38-10.857-10-16-4.645-6.598-15-19-15-19s-10.355 12.402-15 19c-3.62 5.143-7.422 10.263-10 16-2.421 5.388-5 10-5 17 0 10 4 18 13 18 7 0 11-10 12-14 1-1 1 0 1 1-1 8-1 10-2 16s-4 17-4 17c5-2 15-2 20 0 0 0-3-11-4-17s-1-8-2-16c0-1 0-2 1-1zM32.5 118.362c.5 2 2.5 7 6 7 4.5 0 6.5-4 6.5-9 0-3.5-1.29-5.806-2.5-8.5-1.289-2.868-3.19-5.429-5-8-2.323-3.299-7.5-9.5-7.5-9.5s-5.177 6.201-7.5 9.5c-1.81 2.571-3.711 5.132-5 8-1.21 2.694-2.5 5-2.5 8.5 0 5 2 9 6.5 9 3.5 0 5.5-5 6-7 .5-.5.5 0 .5.5-.5 4-.5 5-1 8s-2 8.5-2 8.5c2.5-1 7.5-1 10 0 0 0-1.5-5.5-2-8.5s-.5-4-1-8c0-.5 0-1 .5-.5zM332.5 422.362c.5-2 2.5-7 6-7 4.5 0 6.5 4 6.5 9 0 3.5-1.29 5.806-2.5 8.5-1.289 2.869-3.19 5.429-5 8-2.323 3.3-7.5 9.5-7.5 9.5s-5.177-6.2-7.5-9.5c-1.81-2.571-3.711-5.131-5-8-1.21-2.694-2.5-5-2.5-8.5 0-5 2-9 6.5-9 3.5 0 5.5 5 6 7 .5.5.5 0 .5-.5-.5-4-.5-5-1-8s-2-8.5-2-8.5c2.5 1 7.5 1 10 0 0 0-1.5 5.5-2 8.5s-.5 4-1 8c0 .5 0 1 .5.5z" fill="#000"/></g></svg>
